X: 8239
T: Cora's Tune
R: reel
M: 4/4
K: Dmajor
f2ed abf2|edBA deB2|AFED EFAF|ABdB gfdB|
f2ed abf2|edBA deB2|AFED EFAF|ABde d4:|
|:ABdA Bd F/F/F|d2 f/e/d abf2|bafa fefe|dedc BAFA|
A/A/B dA Bd F/F/F|d2 f/e/d abf2|bafa fefe|defe d4:|

